X: 11777
T: Elizabeth Kelly's Delight
R: slip jig
M: 9/8
K: Adorian
|:[A3 D3] AB[A D] [D A]GE|[A2 D2]E [G2D2]E DEG|A3 B[A D]G [A D]GE|G{A}G{F}G G2E DEG:|
|:[c3 G3] [B G]AG [A2 D2]E|{cd}c2A BG[B E] [B D][B E]G|[c3 G3] [B3 G3] A[B G]E|G{A}G{F}G G2E DEG:|

